packages/calcite-ui-icons/icons/browser-plus-32.svg

<?xml version="1.0" encoding="UTF-8"?><svg id="icons" xmlns="http://www.w3.org/2000/svg" viewBox="0 0 32 32"><defs><style>.cls-1{fill:none;}</style></defs><path d="M2,5v18h1v-12h4v6h1v-6h21v16h-14v1h15V5H2ZM29,10H3v-4h26v4ZM27,8h-1v-1h1v1ZM7,25h6v.99902h-6v6.00098h-1v-6.00098H0v-.99902h6v-6h1v6Z"/><rect class="cls-1" width="32" height="32"/></svg>

<svg xmlns="http://www.w3.org/2000/svg" viewBox="0 0 32 32"><path d="M2 5v18h1V11h4v6h1v-6h21v16H15v1h15V5H2zm27 5H3V6h26v4zm-2-2h-1V7h1v1zM7 25h6v.999H7V32H6v-6.001H0V25h6v-6h1v6z"/><path fill="none" d="M0 0h32v32H0z"/></svg>
